public/svgs/light/align-slash.svg

<svg xmlns="http://www.w3.org/2000/svg" viewBox="0 0 640 512"><!-- Font Awesome Pro 6.0.0-alpha2 by @fontawesome - https://fontawesome.com License - https://fontawesome.com/license (Commercial License) --><path d="M528.001 304H484.086L524.62 336H528.001C536.839 336 544.001 328.836 544.001 320C544.001 311.199 536.801 304 528.001 304ZM528.001 80C536.801 80 544.001 72.799 544.001 64C544.001 55.199 536.801 48 528.001 48H159.82L200.353 80H528.001ZM528.001 176H321.953L362.486 208H528.001C536.801 208 544.001 200.799 544.001 192C544.001 183.199 536.801 176 528.001 176ZM111.999 336H318.047L277.514 304H111.999C103.199 304 95.999 311.199 95.999 320C95.999 328.799 103.199 336 111.999 336ZM111.999 432C103.199 432 95.999 439.199 95.999 448C95.999 456.799 103.199 464 111.999 464H480.18L439.647 432H111.999ZM633.923 483.436L25.921 3.42C18.984 -2.033 8.921 -0.83 3.437 6.061C-2.032 12.998 -0.845 23.061 6.077 28.545L614.079 508.562C617.016 510.875 620.516 512 623.985 512C628.72 512 633.407 509.906 636.563 505.922C642.032 498.984 640.845 488.92 633.923 483.436ZM111.999 208H155.914L115.38 176H111.999C103.199 176 95.999 183.199 95.999 192C95.999 200.799 103.199 208 111.999 208Z"/></svg>

<svg xmlns="http://www.w3.org/2000/svg" viewBox="0 0 640 512"><!--! Font Awesome Pro 6.5.1 by @fontawesome - https://fontawesome.com License - https://fontawesome.com/license (Commercial License) Copyright 2023 Fonticons, Inc. --><path d="M25.9 3.4C19-2 8.9-.8 3.4 6.1S-.8 23.1 6.1 28.6l608 480c6.9 5.5 17 4.3 22.5-2.6s4.3-17-2.6-22.5L25.9 3.4zM528 336c8.8 0 16-7.2 16-16s-7.2-16-16-16H484.1l40.5 32H528zm0-128c8.8 0 16-7.2 16-16s-7.2-16-16-16H322l40.5 32H528zm-372.1 0l-40.5-32H112c-8.8 0-16 7.2-16 16s7.2 16 16 16h43.9zM528 48H159.8l40.5 32H528c8.8 0 16-7.2 16-16s-7.2-16-16-16zM318 336l-40.5-32H112c-8.8 0-16 7.2-16 16s7.2 16 16 16H318zm121.6 96H112c-8.8 0-16 7.2-16 16s7.2 16 16 16H480.2l-40.5-32z"/></svg>
